X:389
T:Lads of Elgin, The
R:Strathspey
B:The Athole Collection
M:C|
L:1/8
K:A Minor
B|A>Bc>d e>dc>A|B>E E/E/E G>AB>G|A>Bc>d e>dc>A|B>E E/E/E A2A:|
B|A<ae<^f d>ec>A|B>E E/E/E G>AB>G|A<ae<^f d<ec<A|B>E E/E/E A2 A>B|
A<ae<^f d>e c<A|B>E E/E/E G>AB>G|A>Bc>d e>dc>A|B>E E/E/E A2A||

